src/components/00-materials/images-raw/Cancelation.svg

<svg width="96" height="96" viewBox="0 0 96 96" fill="none" xmlns="http://www.w3.org/2000/svg">
<path d="M65 38.85V76.43C64.948 77.5335 64.4634 78.5721 63.651 79.3208C62.8387 80.0695 61.7641 80.468 60.66 80.43H28.82C27.7166 80.4654 26.6434 80.066 25.8317 79.3179C25.0199 78.5697 24.5345 77.5326 24.48 76.43V73.5M24.48 23.48V19.38C24.5345 18.2774 25.0199 17.2403 25.8317 16.4921C26.6434 15.7439 27.7166 15.3445 28.82 15.38H60.65C61.4424 15.369 62.2231 15.5723 62.9096 15.9683C63.596 16.3644 64.1628 16.9385 64.55 17.63V18" stroke="#00008F" stroke-width="2" stroke-linecap="round" stroke-linejoin="round"/>
<path d="M55.7 41.2999H43.31C42.2054 41.2999 41.31 42.1954 41.31 43.2999V58.6999C41.31 59.8045 42.2054 60.6999 43.31 60.6999H55.7C56.8046 60.6999 57.7 59.8045 57.7 58.6999V43.2999C57.7 42.1954 56.8046 41.2999 55.7 41.2999Z" stroke="#00008F" stroke-width="2" stroke-linecap="round" stroke-linejoin="round"/>
<path d="M45.75 55.85H53.25M45.75 46.15H53.25H45.75ZM45.75 51H53.25H45.75Z" stroke="#00008F" stroke-width="1.82" stroke-linecap="round" stroke-linejoin="round"/>
<path d="M34.41 15.36V80M21 27.48C21 26.5517 21.3688 25.6615 22.0251 25.0051C22.6815 24.3487 23.5717 23.98 24.5 23.98C25.4283 23.98 26.3185 24.3487 26.9749 25.0051C27.6313 25.6615 28 26.5517 28 27.48M21 34.54C21 33.6117 21.3688 32.7215 22.0251 32.0651C22.6815 31.4087 23.5717 31.04 24.5 31.04C25.4283 31.04 26.3185 31.4087 26.9749 32.0651C27.6313 32.7215 28 33.6117 28 34.54M21 41.61C21 40.6817 21.3688 39.7915 22.0251 39.1351C22.6815 38.4787 23.5717 38.11 24.5 38.11C25.4283 38.11 26.3185 38.4787 26.9749 39.1351C27.6313 39.7915 28 40.6817 28 41.61M21 48.67C21 47.7417 21.3688 46.8515 22.0251 46.1951C22.6815 45.5387 23.5717 45.17 24.5 45.17C25.4283 45.17 26.3185 45.5387 26.9749 46.1951C27.6313 46.8515 28 47.7417 28 48.67M21 55.74C21 54.8117 21.3688 53.9215 22.0251 53.2651C22.6815 52.6087 23.5717 52.24 24.5 52.24C25.4283 52.24 26.3185 52.6087 26.9749 53.2651C27.6313 53.9215 28 54.8117 28 55.74M21 62.8C21 61.8717 21.3688 60.9815 22.0251 60.3251C22.6815 59.6687 23.5717 59.3 24.5 59.3C25.4283 59.3 26.3185 59.6687 26.9749 60.3251C27.6313 60.9815 28 61.8717 28 62.8M24.48 73.5C23.7773 73.5039 23.0894 73.2986 22.5038 72.9103C21.9181 72.5219 21.4613 71.968 21.1916 71.3192C20.9218 70.6704 20.8512 69.9559 20.9888 69.2669C21.1264 68.5778 21.4659 67.9452 21.9642 67.4498C22.4625 66.9543 23.097 66.6183 23.7868 66.4847C24.4767 66.351 25.1907 66.4257 25.838 66.6992C26.4853 66.9726 27.0365 67.4326 27.4216 68.0204C27.8066 68.6082 28.0079 69.2973 28 70M60.83 24.53L68.61 32.31M60.83 32.31L68.61 24.53M65.16 38.86H64.72C61.9629 38.802 59.3399 37.6586 57.4208 35.6781C55.5018 33.6976 54.4416 31.0399 54.4706 28.2823C54.4996 25.5247 55.6153 22.8899 57.5756 20.9501C59.5358 19.0103 62.1822 17.9223 64.94 17.9223C67.6978 17.9223 70.3442 19.0103 72.3044 20.9501C74.2647 22.8899 75.3805 25.5247 75.4094 28.2823C75.4384 31.0399 74.3782 33.6976 72.4592 35.6781C70.5401 37.6586 67.9172 38.802 65.16 38.86Z" stroke="#00008F" stroke-width="2" stroke-linecap="round" stroke-linejoin="round"/>
</svg>

<svg width="96" height="96" viewBox="0 0 96 96" fill="none" xmlns="http://www.w3.org/2000/svg"><path d="M65 38.85v37.58a4.2 4.2 0 01-4.34 4H28.82a4.21 4.21 0 01-4.34-4V73.5m0-50.02v-4.1a4.21 4.21 0 014.34-4h31.83a4.4 4.4 0 013.9 2.25V18" stroke="#00008F" stroke-width="2" stroke-linecap="round" stroke-linejoin="round"/><path d="M55.7 41.3H43.31a2 2 0 00-2 2v15.4a2 2 0 002 2H55.7a2 2 0 002-2V43.3a2 2 0 00-2-2z" stroke="#00008F" stroke-width="2" stroke-linecap="round" stroke-linejoin="round"/><path d="M45.75 55.85h7.5m-7.5-9.7h7.5-7.5zm0 4.85h7.5-7.5z" stroke="#00008F" stroke-width="1.82" stroke-linecap="round" stroke-linejoin="round"/><path d="M34.41 15.36V80M21 27.48a3.5 3.5 0 017 0m-7 7.06a3.5 3.5 0 017 0m-7 7.07a3.5 3.5 0 017 0m-7 7.06a3.5 3.5 0 017 0m-7 7.07a3.5 3.5 0 017 0m-7 7.06a3.5 3.5 0 017 0m-3.52 10.7A3.54 3.54 0 1128 70m32.83-45.47l7.78 7.78m-7.78 0l7.78-7.78m-3.45 14.33h-.44a10.47 10.47 0 11.44 0z" stroke="#00008F" stroke-width="2" stroke-linecap="round" stroke-linejoin="round"/></svg>
